X:133
T:Now for it
M:2/4
L:1/8
B:Thompson's Compleat Collection of 200 Favourite Country Dances, vol. 1 (London, 1757)
Z:Transcribed and edited by Flynn Titford-Mock, 2007
Z:abc's:AK/Fiddler's Companion
K:D
G|F A2g|f d2 G|F A2d|c E2 G|F A2 g|f d2 f|edcB|A3:|
|:A|B G2 (e/f/)|g B2 G|A F2 (d/e/)|f A2 G/F/|(3G/A/B/ (3 A/B/c/|(3B/c/d (3e/f/g/|fdec d2 D:|

